X:1
T:[ID 2-119a]
T:[ID 2-119a]
T:Bezeichnung standardisiert: Polonaise Polonoise con Trio
T:Urheber unbekannt Datum in der hier transkribierten schriftlichen Quelle: 1776 - 1791
C:Urheber unbekannt
C:Datum in der hier transkribierten schriftlichen Quelle: 1776 - 1791
%%score 1 2
L:1/8
M:3/4
K:D
V:1 treble 
V:2 treble 
V:1
 d2 f/e/d/c/ d/e/f/g/ | aa/b/ (ag) f2 | AA/B/ (AG) F2 | a2 b/a/g/f/ e/d/c/B/ | Ag/f/{f} e4 :: %5
!p! a2 b/a/g/f/ g2 |!f! c/A/e/A/ c/A/e/A/ c/A/e/c/ |!p! g2 a/g/f/e/ f2 | %8
!f! d/A/f/A/ d/A/f/A/ d/A/f/A/ | a2 b2 g/e/f/g/ f/e/d/c/{c} d4 | %10
[M:3/4]"^Trio" !fermata!f>f (f3/2g/4a/4) (f3/2g/4a/4) :| g>g (g3 a/b/) | %12
 c>c (c3/2d/4e/4) (c3/2d/4e/4) | dd/e/{c} d4 | a _c'2 b2 ^d :: ee/^d/{d} e4 | g b2 a2 c | %17
 dd/c/{c} d4 | f>f (f3/2g/4a/4) (f3/2g/4a/4) | g>g (g3 a/b/) | c>c (c3/2d/4e/4) (c3/2d/4e/4) | %21
 dd/e/{c} d4"^D.C. Pol" | x6 :| %23
V:2
 !fermata!d2 f/e/d/c/ d/c/d/e/ | ff/g/ (fe) d2 | FF/G/ (FE) D2 | f2 g/f/e/d/ c/B/A/^G/ | %4
 Ae/d/{d} c4 ::!p! f2 g/f/e/d/ e2 |!f! EEEEEE |!p! e2 f/e/d/c/ d2 |!f! FFFFFF | f2 g2 e/c/d/e/ x6 | %10
 d/G/F/E/{E} F4 :|[M:3/4] d>d (d3/2e/4f/4) (d3/2e/4f/4) | e>e e3 (f/g/) | %13
 E>E E3/2(F/4G/4) E3/2(F/4G/4) | FF/E/{E} F4 :: f a2 f2 A | GG/F/{F} G4 | e g2 e2 G | FF/E/{E} F4 | %19
 d>d d3/2(e/4f/4) d3/2(e/4f/4) | e>e e3 f/g/ | E>E E3/2(F/4G/4) E3/2(F/4G/4) | %22
 FF/E/ F4"^DaCapo Pol" :| %23

